X: 25
T: the Longford Spinster
R: reel
Z: 2012 John Chambers <jc@trillian.mit.edu>
B: "100 Essential Irish Session Tunes" 1995 Dave Mallinson, ed.
M: 4/4
L: 1/8
K: Bm
[|\
"Bm"dBBA B2AB | dB~B2 fBdB | "Bm"dBBA B2dB | "A"ABde "F#m"fafe |
"Bm"dBBA FB~B2  | "G"dBBA Bdef | "A"aAAB A2AB | ABde fdef |]
[|\
"D"d2fd "Em"efge | "D"defa "A7"gefe | "D"d2fd "Em"efge | "D"faaf "A7"gefe |
"D"d2fd "Em"efge | "D"defa "G"g2fa | "Em"bgaf gfed | "D"faaf "A7"gfed |]
[|\
"D"faaf faaf | faaf gfed | "G"gbbg gbbg | "Em"gbbf gfed |
"D"faaf faaf | faaf "G"g2ga | "Em"bgaf gfed | "F#m"faaf gfef |]
